!!!!SEGMENT: pl-kk--kk-i-3--039-001_anonim--per-octavas-sanctus.krn
!!!cenid: 15xx:648
!!!COM: Anonim
!!!COM-rismid: pe30004985
!!!CDT:
!!!CNT:
!!!OPR: Per octavas
!!!OTL: Sanctus
!!!OMV: 001
!!!PDT:
!!!AGN:
!!!SMS-siglum: PL-Kk
!!!SMS-shelfmark: Kk.I.3
!!!SMS-shelfwork: 039-001 M
!!!SMS-variant:
!!!SMS-altvar:
!!!NIFC-rismid: 1001145542
!!!URL-scan: http://repozytorium.nifc.pl/skany/pl-kk-nut--i-3
!!!ONB-nifc: UWAGA: Discantus (s. 116v-117v, skan 0119-0120), Tenor (s. 88r-v, skan 0260-0261), Bassus (s. 113r-114r, skan 0416-0417). Następna część: Agnus Dei
!!!key: d:dor
**kern	**text	**text	**kern	**text	**text	**kern	**text	**text
*part3	*part3	*part3	*part2	*part2	*part2	*part1	*part1	*part1
*staff3	*staff3	*staff3	*staff2	*staff2	*staff2	*staff1	*staff1	*staff1
*Ibass	*	*	*Itenor	*	*	*Iempty	*	*
*I"[Bassus]	*	*	*I"[Tenor]	*	*	*I"[Discantus]	*	*
*I'B	*	*	*I'T	*	*	*I'S	*	*
*ICvox	*	*	*ICvox	*	*	*ICvox	*	*
*clefF4	*	*	*clefC4	*	*	*clefC3	*	*
*k[]	*	*	*k[]	*	*	*k[]	*	*
*d:dor	*	*	*d:dor	*	*	*d:dor	*	*
*M2/1	*	*	*M2/1	*	*	*M2/1	*	*
*lig	*	*	*lig	*	*	*	*	*
=1-	=1-	=1-	=1-	=1-	=1-	=1-	=1-	=1-
!!LO:TX:t=P:problem:brak oznaczenia metrum w źródle
!	!	!	!	!	!	!LO:TX:t=P:problem:kasownik przy kluczu	!	!
*2\right	*	*	*2\right	*	*	*2\right	*	*
1AA	San-	.	1A	San-	.	0r	.	.
1E	.	.	1G	.	.	.	.	.
*Xlig	*	*	*Xlig	*	*	*	*	*
=2-	=2-	=2-	=2-	=2-	=2-	=2-	=2-	=2-
*	*	*	*lig	*	*	*lig	*	*
2F/	.	.	1A	.	.	1A	San-	.
2D/	.	.	.	.	.	.	.	.
2G\	.	.	1B	.	.	1G	.	.
1G\	.	.	.	.	.	.	.	.
*	*	*	*Xlig	*	*	*Xlig	*	*
=3-	=3-	=3-	=3-	=3-	=3-	=3-	=3-	=3-
*	*	*	*lig	*	*	*lig	*	*
.	.	.	1c	.	.	1A	.	.
2F\	.	.	.	.	.	.	.	.
2G\	.	.	1G	.	.	1B	.	.
2E/	.	.	.	.	.	.	.	.
*	*	*	*Xlig	*	*	*Xlig	*	*
=4-	=4-	=4-	=4-	=4-	=4-	=4-	=4-	=4-
*	*	*	*lig	*	*	*lig	*	*
1AA	.	.	1A	.	.	1c	.	.
2.E/	.	.	1B	.	.	1G	.	.
!LO:SIC:v:t=custos C	!	!	!	!	!	!	!	!
4D/	.	.	.	.	.	.	.	.
*	*	*	*Xlig	*	*	*Xlig	*	*
!LO:LB:g=original	!	!	!	!	!	!	!	!
=5-	=5-	=5-	=5-	=5-	=5-	=5-	=5-	=5-
*	*	*	*lig	*	*	*2\right	*	*
1C	.	.	1c	.	.	2g\	.	.
.	.	.	.	.	.	2e/	.	.
1D	.	.	1A	.	.	1f	.	.
*	*	*	*Xlig	*	*	*	*	*
=6-	=6-	=6-	=6-	=6-	=6-	=6-	=6-	=6-
*	*	*	*lig	*	*	*	*	*
0C	.	.	1c	.	.	2.e/	.	.
.	.	.	.	.	.	4d/	.	.
.	.	.	1e	.	.	2c/	.	.
.	.	.	.	.	.	1.g\	.	.
*	*	*	*Xlig	*	*	*	*	*
=7-	=7-	=7-	=7-	=7-	=7-	=7-	=7-	=7-
1G	.	.	1d	.	.	.	.	.
*	*	*	*lig	*	*	*	*	*
!	!	!	!	!	!	!LO:SIC:v:t=custos d	!	!
1A	.	.	1c	.	.	1e	.	.
!	!	!	!	!	!	!LO:LB:g=original	!	!
=8-	=8-	=8-	=8-	=8-	=8-	=8-	=8-	=8-
2D/	.	.	1d	.	.	2d/	.	.
1G	.	.	.	.	.	1B-X	.	.
*	*	*	*Xlig	*	*	*	*	*
!	!	!	!LO:N:vis=0	!	!	!	!	!
.	.	.	1d;	-ctus	.	.	.	.
2F\	.	.	.	.	.	2A/	.	.
=9-	=9-	=9-	=9-	=9-	=9-	=9-	=9-	=9-
0G	.	.	0dyy	.	.	0G	.	.
=10-	=10-	=10-	=10-	=10-	=10-	=10-	=10-	=10-
!	!	!	!LO:SIC:v:t=custos A	!	!	!LO:N:vis=00	!	!
0D;	-ctus	.	0dyy	.	.	0F;	-ctus	.
=11||-	=11||-	=11||-	=11||-	=11||-	=11||-	=11||-	=11||-	=11||-
*k[b-]	*	*	*	*	*	*	*	*
1.D	San-	.	0A	San-	.	1A	San-	.
.	.	.	.	.	.	2d/	.	.
2C/	.	.	.	.	.	2e/	.	.
=12-	=12-	=12-	=12-	=12-	=12-	=12-	=12-	=12-
1D	.	.	0d	.	.	1f	.	.
!LO:SIC:v:t=custos D	!	!	!	!	!	!	!	!
1GG	.	.	.	.	.	2g\	.	.
.	.	.	.	.	.	1g\	.	.
!LO:LB:g=original	!	!	!	!	!	!	!	!
=13-	=13-	=13-	=13-	=13-	=13-	=13-	=13-	=13-
*	*	*	*lig	*	*	*	*	*
1D	.	.	1A	.	.	.	.	.
.	.	.	.	.	.	2f\	.	.
!	!	!	!	!	!	!LO:SIC:v:t=custos d	!	!
4GG/	.	.	1G	.	.	2g\	.	.
*	*	*	*Xlig	*	*	*	*	*
4AA/	.	.	.	.	.	.	.	.
!	!	!	!	!	!	!LO:LB:g=original	!	!
4BB-/	.	.	.	.	.	1d\	.	.
4C/	.	.	.	.	.	.	.	.
=14-	=14-	=14-	=14-	=14-	=14-	=14-	=14-	=14-
*	*	*	*lig	*	*	*	*	*
1D	.	.	1F	.	.	.	.	.
.	.	.	.	.	.	4c/	.	.
.	.	.	.	.	.	4B-y/	.	.
1AA	.	.	1E	.	.	2c/	.	.
*	*	*	*Xlig	*	*	*	*	*
.	.	.	.	.	.	2c/	.	.
=15-	=15-	=15-	=15-	=15-	=15-	=15-	=15-	=15-
1.A	.	.	0D	.	.	1.d	.	.
2G\	.	.	.	.	.	2e/	.	.
=16-	=16-	=16-	=16-	=16-	=16-	=16-	=16-	=16-
2F/	.	.	0A	.	.	2.f\	.	.
2D/	.	.	.	.	.	.	.	.
.	.	.	.	.	.	4e\	.	.
2.F\	.	.	.	.	.	1c	.	.
4G\	.	.	.	.	.	.	.	.
=17-	=17-	=17-	=17-	=17-	=17-	=17-	=17-	=17-
*	*	*	*lig	*	*	*	*	*
1A	.	.	1D	.	.	2d/	.	.
.	.	.	.	.	.	1d	.	.
1AA	.	.	1E	.	.	.	.	.
.	.	.	.	.	.	2c/	.	.
*	*	*	*Xlig	*	*	*	*	*
=18-	=18-	=18-	=18-	=18-	=18-	=18-	=18-	=18-
*	*	*	*lig	*	*	*	*	*
1GG	.	.	1G	.	.	1d	.	.
1D	.	.	1F	.	.	1A	.	.
*	*	*	*Xlig	*	*	*	*	*
=19-	=19-	=19-	=19-	=19-	=19-	=19-	=19-	=19-
0AA	-ctus	.	0E	.	.	0A;	-ctus	.
=20-	=20-	=20-	=20-	=20-	=20-	=20-	=20-	=20-
!LO:SIC:v:t=custos AA	!	!	!	!	!	!LO:SIC:v:t=custos A	!	!
0D;	.	.	0D;	-ctus	.	0Ayy	.	.
!LO:LB:g=original	!	!	!	!	!	!LO:LB:g=orginal	!	!
=21||-	=21||-	=21||-	=21||-	=21||-	=21||-	=21||-	=21||-	=21||-
*lig	*	*	*lig	*	*	*	*	*
1AA	San-	O-	1A	San-	O-	0r	.	.
1E	.	.	1G	.	.	.	.	.
*Xlig	*	*	*Xlig	*	*	*	*	*
=22-	=22-	=22-	=22-	=22-	=22-	=22-	=22-	=22-
*lig	*	*	*lig	*	*	*lig	*	*
1A	.	.	1A	.	.	1A	San-	O-
!	!	!	!LO:SIC:v:t=custos c	!	!	!	!	!
1E	.	.	1B	.	.	1G	.	.
*Xlig	*	*	*Xlig	*	*	*Xlig	*	*
!	!	!	!LO:LB:g=original	!	!	!	!	!
=23-	=23-	=23-	=23-	=23-	=23-	=23-	=23-	=23-
*lig	*	*	*lig	*	*	*lig	*	*
1AA	.	.	1c	.	.	1A	.	.
1E	.	.	1G	.	.	1B-y	.	.
*Xlig	*	*	*Xlig	*	*	*Xlig	*	*
=24-	=24-	=24-	=24-	=24-	=24-	=24-	=24-	=24-
*	*	*	*lig	*	*	*lig	*	*
1AA	.	.	1A	.	.	1c	.	.
2E/	.	.	1B	.	.	1G	.	.
2G\	.	.	.	.	.	.	.	.
*	*	*	*Xlig	*	*	*Xlig	*	*
=25-	=25-	=25-	=25-	=25-	=25-	=25-	=25-	=25-
*	*	*	*lig	*	*	*	*	*
0F	.	.	1c	.	.	0A	.	.
.	.	.	1A	.	.	.	.	.
*	*	*	*Xlig	*	*	*	*	*
=26-	=26-	=26-	=26-	=26-	=26-	=26-	=26-	=26-
*	*	*	*lig	*	*	*	*	*
0C	.	.	1c	.	.	1G	.	.
.	.	.	1e	.	.	1g	.	.
*	*	*	*Xlig	*	*	*	*	*
=27-	=27-	=27-	=27-	=27-	=27-	=27-	=27-	=27-
1D	.	.	1d	.	.	1f	.	.
*	*	*	*lig	*	*	*	*	*
1AA	.	.	1c	.	.	1e	.	.
=28-	=28-	=28-	=28-	=28-	=28-	=28-	=28-	=28-
1D	.	.	1d	.	-ſan-	2.d/	.	.
.	.	.	.	.	.	4c/	.	-ſan-
*	*	*	*Xlig	*	*	*	*	*
1G	-ctus	-ſan-	1d,	-ctus	-na	1B-X	-ctus	-na
=29-	=29-	=29-	=29-	=29-	=29-	=29-	=29-	=29-
2F/	do-	-na	1A	do-	in	2c/	do-	in
2D/	-mi-	.	.	.	.	2d/	-mi-	.
!	!	!	!	!	!	!LO:SIC:v:t=custos B-	!	!
1F	-nus	in	1A	-mi-	e-	1c	.	e-
!	!	!	!	!	!	!LO:LB:g=original	!	!
=30-	=30-	=30-	=30-	=30-	=30-	=30-	=30-	=30-
!LO:SIC:v:t=custos AA	!	!	!	!	!	!	!	!
0BB-X	.	ex	0d,	-nus	-xel	0B-X	-nus	-xel
!LO:LB:g=original	!	!	!	!	!	!	!	!
=31-	=31-	=31-	=31-	=31-	=31-	=31-	=31-	=31-
*	*	*	*lig	*	*	*	*	*
1F	de-	.	1A	de-	.	2c/	de-	.
.	.	.	.	.	.	1f	.	.
1C	.	.	1G	.	.	.	.	.
.	.	.	.	.	.	2e\	.	.
*	*	*	*Xlig	*	*	*	*	*
=32-	=32-	=32-	=32-	=32-	=32-	=32-	=32-	=32-
*	*	*	*lig	*	*	*	*	*
1D	.	.	1F	-vs	.	2f\	.	.
.	.	.	.	.	.	1d	.	.
1AA	.	.	1D	.	.	.	.	.
.	.	.	.	.	.	2c/	-us	.
*	*	*	*Xlig	*	*	*	*	*
=33-	=33-	=33-	=33-	=33-	=33-	=33-	=33-	=33-
!	!	!	!LO:SIC:v:t=custos A	!	!	!	!	!
0BB-y	-us	.	0D,	.	.	0d	.	.
!	!	!	!LO:LB:g=original	!	!	!	!	!
=34-	=34-	=34-	=34-	=34-	=34-	=34-	=34-	=34-
2.AA/	ſab-	.	0A	ſab-	.	2.c/	ſab-	.
4BB-y/	.	.	.	.	.	4d/	.	.
2C/	.	.	.	.	.	2e\	.	.
2.D/	.	.	.	.	.	2.f\	.	.
=35-	=35-	=35-	=35-	=35-	=35-	=35-	=35-	=35-
*	*	*	*lig	*	*	*	*	*
.	.	.	1D	.	.	.	.	.
4E/	.	.	.	.	.	4e\	.	.
2F\	.	.	.	.	.	2d/	.	.
2E/	.	.	1E	.	.	2.g\	.	.
2.C/	.	.	.	.	.	.	.	.
!	!	!	!	!	!	!LO:SIC:v:t=custos e	!	!
.	.	.	.	.	.	4f\	.	.
*	*	*	*Xlig	*	*	*	*	*
=36-	=36-	=36-	=36-	=36-	=36-	=36-	=36-	=36-
*	*	*	*lig	*	*	*	*	*
.	.	.	1G	.	.	1e	.	.
4D/	.	.	.	.	.	.	.	.
2E/	.	.	.	.	.	.	.	.
1D	.	.	1F	.	.	2f\	.	.
.	.	.	.	.	.	1d\	.	.
*	*	*	*Xlig	*	*	*	*	*
=37-	=37-	=37-	=37-	=37-	=37-	=37-	=37-	=37-
0AA	-ba-	.	0E	-ba-	.	.	.	.
.	.	.	.	.	.	4c/	.	.
.	.	.	.	.	.	4B-y/	.	.
.	.	.	.	.	.	2c/	-ba-	.
.	.	.	.	.	.	2c/	-oth	.
=38-	=38-	=38-	=38-	=38-	=38-	=38-	=38-	=38-
!LO:SIC:v:t=custos A	!	!	!	!	!	!	!	!
0A;<	-oth	.	0D;	-oth	.	0d;<	.	.
!LO:PB:g=original	!	!	!	!	!	!	!	!
=39||-	=39||-	=39||-	=39||-	=39||-	=39||-	=39||-	=39||-	=39||-
1A	Ple-	Be-	1A	Ple-	Be-	0r	.	.
1E	-ni	-ne-	1G	-ni	-ne-	.	.	.
=40-	=40-	=40-	=40-	=40-	=40-	=40-	=40-	=40-
2F/	sunt	-di-	1A	sunt	-di-	1a	Ple-	Be-
2F/	ce-	-ctus	.	.	.	.	.	.
1E	-li	.	1B	ce-	-ctus	1g	-ni	-ne-
=41-	=41-	=41-	=41-	=41-	=41-	=41-	=41-	=41-
2.C/	.	qvi	1c	-li	qvi	2.e\	ſunt	-di-
4D/	.	.	.	.	.	4f\	.	.
*	*	*	*lig	*	*	*	*	*
4E/	.	.	1G	et	.	4g\	.	.
4D/	.	.	.	.	.	4f\	.	.
4C/	.	.	.	.	.	4e/	.	.
!	!	!	!	!	!	!LO:SIC:v:t=custos c	!	!
4BB-y/	.	.	.	.	.	4d/	.	.
!	!	!	!	!	!	!LO:PB:g=original	!	!
=42-	=42-	=42-	=42-	=42-	=42-	=42-	=42-	=42-
!	!	!	!LO:SIC:v:t=custos B	!	!	!	!	!
2AA/	.	.	1A	.	.	1c	et	-ctus
1A	.	.	.	.	.	.	.	.
*	*	*	*Xlig	*	*	*	*	*
!	!	!	!LO:LB:g=original	!	!	!	!	!
.	.	.	1B	.	.	1e	.	qui
2G\	et	ve-	.	.	.	.	.	.
=43-	=43-	=43-	=43-	=43-	=43-	=43-	=43-	=43-
*	*	*	*lig	*	*	*	*	*
0A	ter-	-nit	1c	.	.	0e	.	.
.	.	.	1A	.	.	.	.	.
*	*	*	*Xlig	*	*	*	*	*
=44-	=44-	=44-	=44-	=44-	=44-	=44-	=44-	=44-
*	*	*	*lig	*	*	*	*	*
2.AA/	.	.	1c	.	.	1a	.	.
!LO:SIC:v:t=custos C	!	!	!	!	!	!	!	!
4BB-y/	.	.	.	.	.	.	.	.
!LO:LB:g=original	!	!	!	!	!	!	!	!
2C/	.	.	1e	.	.	1g	.	.
2C/	-ra	.	.	.	.	.	.	.
*	*	*	*Xlig	*	*	*	*	*
=45-	=45-	=45-	=45-	=45-	=45-	=45-	=45-	=45-
*	*	*	*lig	*	*	*	*	*
1D	.	.	1d	.	.	2f\	.	.
.	.	.	.	.	.	2d/	.	.
1AA	.	.	1c	.	.	1e	ter-	ve-
*	*	*	*Xlig	*	*	*	*	*
=46-	=46-	=46-	=46-	=46-	=46-	=46-	=46-	=46-
2r	.	.	1d	-ter-	ve-	1f	-ra	-nit
2D/	glo-	In	.	.	.	.	.	.
1GG	-ri-	no-	1d	-ra	-nit	1g	.	.
=47-	=47-	=47-	=47-	=47-	=47-	=47-	=47-	=47-
2D/	-a	-mi-	1A	glo-	in	2f\	glo-	.
2C/	.	-ne	.	.	.	2e/	-ri-	in
1D	.	.	1A	-ri-	no-	1f	-a	no-
=48-	=48-	=48-	=48-	=48-	=48-	=48-	=48-	=48-
2GG/	.	.	0d	-a	-mi-	2d/	.	-mi-
1G	.	.	.	.	.	1g	.	-ne
!	!	!	!	!	!	!LO:SIC:v:t=custos f	!	!
2D/	.	.	.	.	.	2f\	.	.
!	!	!	!	!	!	!LO:LB:g=original	!	!
=49-	=49-	=49-	=49-	=49-	=49-	=49-	=49-	=49-
*	*	*	*lig	*	*	*	*	*
2F/	.	.	1A	tu-	-(n)e	1f	.	.
2D/	.	.	.	.	.	.	.	.
2E/	.	.	1G	.	do-	1e	tu-	do-
2C/	.	.	.	.	.	.	.	.
*	*	*	*Xlig	*	*	*	*	*
=50-	=50-	=50-	=50-	=50-	=50-	=50-	=50-	=50-
*	*	*	*lig	*	*	*	*	*
1D	.	.	1F	.	.	2d/	.	.
.	.	.	.	.	.	1d	.	.
!LO:SIC:v:t=custos A	!	!	!	!	!	!	!	!
1AA	.	.	1E	.	.	.	.	.
.	.	.	.	.	.	2c/	.	.
*	*	*	*Xlig	*	*	*	*	*
!LO:LB:g=original	!	!	!	!	!	!	!	!
=51-	=51-	=51-	=51-	=51-	=51-	=51-	=51-	=51-
2A\	tu-	do-	0D	.	.	0d	.	.
2B-y\	-a-	-mi-	.	.	.	.	.	.
2.A\	.	.	.	.	.	.	.	.
4G\	.	.	.	.	.	.	.	.
=52-	=52-	=52-	=52-	=52-	=52-	=52-	=52-	=52-
4F\	.	.	0A	.	.	2c/	.	.
4E\	.	.	.	.	.	.	.	.
1D	.	.	.	.	.	2d/	.	.
.	.	.	.	.	.	1e	.	.
2C/	.	.	.	.	.	.	.	.
=53-	=53-	=53-	=53-	=53-	=53-	=53-	=53-	=53-
*	*	*	*lig	*	*	*	*	*
1D	.	.	1D	.	.	2f\	.	.
.	.	.	.	.	.	1d	.	.
!	!	!	!LO:SIC:v:t=custos G	!	!	!	!	!
1AA	.	.	1E	.	.	.	.	.
.	.	.	.	.	.	2c/	.	.
*	*	*	*Xlig	*	*	*	*	*
=54-	=54-	=54-	=54-	=54-	=54-	=54-	=54-	=54-
*	*	*	*lig	*	*	*	*	*
2r	.	.	1G	.	.	2d/	.	.
2E/	.	.	.	.	.	2e/	.	.
2D/	.	.	1F	.	.	2f\	.	.
2D/	.	.	.	.	.	1d\	.	.
*	*	*	*Xlig	*	*	*	*	*
=55-	=55-	=55-	=55-	=55-	=55-	=55-	=55-	=55-
0AA	.	.	0E	-a	-mi-	.	.	.
.	.	.	.	.	.	4c/	.	.
!	!	!	!	!	!	!LO:SIC:v:t=custos c	!	!
.	.	.	.	.	.	4B-y/	.	.
!	!	!	!	!	!	!LO:LB:g=original	!	!
.	.	.	.	.	.	2c/	.	.
.	.	.	.	.	.	2c/	.	.
=56-	=56-	=56-	=56-	=56-	=56-	=56-	=56-	=56-
!	!	!	!LO:N:vis=0	!	!	!	!	!
!	!	!	!LO:SIC:v:t=custos A	!	!	!	!	!
1.BB-X	.	.	0D;	.	-ni	1.d	.	.
!LO:SIC:v:t=custos GG	!	!	!	!	!	!	!	!
2AA/	.	.	.	.	.	2c/	.	.
=57-	=57-	=57-	=57-	=57-	=57-	=57-	=57-	=57-
2GG/	.	.	0Dyy	.	.	2B-X/	.	.
2FF/	.	.	.	.	.	2A/	.	.
1GG	-tu-	-mi-	.	.	.	1G	.	.
=58-	=58-	=58-	=58-	=58-	=58-	=58-	=58-	=58-
!LO:SIC:v:t=custos AA	!	!	!	!	!	!	!	!
00D/;	-a	-ni	0Dyy	.	.	2.F/	.	-mi-
.	.	.	.	.	.	4G/	.	.
.	.	.	.	.	.	2A/	.	.
.	.	.	.	.	.	2D/	.	.
=59-	=59-	=59-	=59-	=59-	=59-	=59-	=59-	=59-
!	!	!	!	!	!	!LO:SIC:v:t=custos A	!	!
.	.	.	0Dyy	.	.	0d;<	-a	-ni
==	==	==	==	==	==	==	==	==
*-	*-	*-	*-	*-	*-	*-	*-	*-
!!!RDF**kern: < = below
!!!system-decoration: [(s1,s2,s3)]
!!!AIN: 1 bass 1 empty 1 tenor
!!!ENC: Anastazja Marusiak
!!!END: 2022-01-18
!!!ENC: Urszula Świątek
!!!END: 2022-01-25
